Sources/FrostedUI/Resources/Icons.xcassets/arrowFatUp32.imageset/arrow-fat-up-32.svg

<svg width="32" height="32" viewBox="0 0 32 32" fill="none" xmlns="http://www.w3.org/2000/svg" data-fui-icon="true">
  <path
    d="M14.4208 2.35056C15.2518 1.38555 16.7468 1.38587 17.578 2.35056L25.952 12.0761C26.7428 12.9944 26.0908 14.417 24.8788 14.417H21.0829V27C21.0829 28.1504 20.1503 29.0837 18.9999 29.084H12.9999C11.8494 29.0838 10.9159 28.1505 10.9159 27V14.417H7.12C5.90842 14.4167 5.25633 12.9944 6.04675 12.0761L14.4208 2.35056ZM16.4413 3.33005C16.2376 3.09373 15.8923 3.06406 15.6532 3.24118L15.5575 3.33005L7.30164 12.917H11.6659C12.0801 12.917 12.4159 13.2528 12.4159 13.667V27C12.4159 27.322 12.6779 27.5838 12.9999 27.584H18.9999C19.3219 27.5837 19.5829 27.322 19.5829 27V13.667C19.5829 13.2529 19.9188 12.9171 20.3329 12.917H24.6971L16.4413 3.33005Z"
    fill="currentColor"
  />
</svg>

<svg xmlns="http://www.w3.org/2000/svg" width="32" height="32" fill="none" data-fui-icon="true" viewBox="0 0 32 32"><path fill="currentColor" d="M14.42 2.35a2.084 2.084 0 0 1 3.158 0l8.374 9.726c.79.918.139 2.341-1.073 2.341h-3.796V27c0 1.15-.933 2.084-2.083 2.084h-6A2.085 2.085 0 0 1 10.916 27V14.417H7.12c-1.212 0-1.864-1.423-1.073-2.34zm2.021.98a.583.583 0 0 0-.788-.089l-.096.089-8.255 9.587h4.364a.75.75 0 0 1 .75.75V27c0 .322.262.584.584.584h6a.584.584 0 0 0 .583-.584V13.667a.75.75 0 0 1 .75-.75h4.364z"/></svg>
